justvector/apple.svg

<?xml version="1.0" encoding="iso-8859-1"?>
<!-- Generator: Adobe Illustrator 15.0.0, SVG Export Plug-In . SVG Version: 6.00 Build 0)  -->
<!DOCTYPE svg PUBLIC "-//W3C//DTD SVG 1.1//EN" "http://www.w3.org/Graphics/SVG/1.1/DTD/svg11.dtd">
<svg version="1.1" id="Icons" xmlns="http://www.w3.org/2000/svg" xmlns:xlink="http://www.w3.org/1999/xlink" x="0px" y="0px"
	 width="100px" height="100px" viewBox="0 0 100 100" style="enable-background:new 0 0 100 100;" xml:space="preserve">
<path id="Apple" d="M54.645,11.817C57.877,8.017,63.34,5.19,67.848,5c0.575,5.279-1.541,10.565-4.669,14.374
	c-3.133,3.802-8.261,6.764-13.294,6.369C49.201,20.578,51.737,15.192,54.645,11.817z M80.291,83.827
	c-3.741,5.486-7.61,10.939-13.718,11.053c-6.011,0.114-7.938-3.572-14.798-3.572c-6.867,0-9.016,3.458-14.691,3.686
	c-5.897,0.222-10.382-5.925-14.152-11.387c-7.703-11.167-13.585-31.576-5.677-45.349c3.916-6.84,10.934-11.167,18.537-11.282
	c5.792-0.107,11.263,3.917,14.799,3.917c3.544,0,10.185-4.831,17.165-4.122c2.922,0.121,11.123,1.181,16.391,8.912
	c-0.417,0.274-9.789,5.745-9.676,17.141C74.585,66.437,86.363,70.961,86.5,71.023C86.392,71.343,84.616,77.483,80.291,83.827z"/>
</svg>

<?xml version="1.0" encoding="UTF-8" standalone="no"?>
<!DOCTYPE svg PUBLIC "-//W3C//DTD SVG 1.1//EN" "http://www.w3.org/Graphics/SVG/1.1/DTD/svg11.dtd">
<svg width="100%" height="100%" viewBox="0 0 100 100" version="1.1" xmlns="http://www.w3.org/2000/svg" xmlns:xlink="http://www.w3.org/1999/xlink" xml:space="preserve" xmlns:serif="http://www.serif.com/" style="fill-rule:evenodd;clip-rule:evenodd;stroke-linejoin:round;stroke-miterlimit:2;">
    <path id="Apple" d="M54.645,11.817C57.877,8.017 63.34,5.19 67.848,5C68.423,10.279 66.307,15.565 63.179,19.374C60.046,23.176 54.918,26.138 49.885,25.743C49.201,20.578 51.737,15.192 54.645,11.817ZM80.291,83.827C76.55,89.313 72.681,94.766 66.573,94.88C60.562,94.994 58.635,91.308 51.775,91.308C44.908,91.308 42.759,94.766 37.084,94.994C31.187,95.216 26.702,89.069 22.932,83.607C15.229,72.44 9.347,52.031 17.255,38.258C21.171,31.418 28.189,27.091 35.792,26.976C41.584,26.869 47.055,30.893 50.591,30.893C54.135,30.893 60.776,26.062 67.756,26.771C70.678,26.892 78.879,27.952 84.147,35.683C83.73,35.957 74.358,41.428 74.471,52.824C74.585,66.437 86.363,70.961 86.5,71.023C86.392,71.343 84.616,77.483 80.291,83.827Z" style="fill:white;fill-rule:nonzero;"/>
</svg>
